SVG_Azure_Grouped/Compute/VM Image Version.svg

<?xml version="1.0" encoding="UTF-8" standalone="no"?>
<!-- Generated by Microsoft Visio, SVG Export VM Image Version.svg Page-1 -->

<svg
   xmlns:dc="http://purl.org/dc/elements/1.1/"
   xmlns:cc="http://creativecommons.org/ns#"
   xmlns:rdf="http://www.w3.org/1999/02/22-rdf-syntax-ns#"
   xmlns:svg="http://www.w3.org/2000/svg"
   xmlns="http://www.w3.org/2000/svg"
   xmlns:sodipodi="http://sodipodi.sourceforge.net/DTD/sodipodi-0.dtd"
   xmlns:inkscape="http://www.inkscape.org/namespaces/inkscape"
   width="0.78735971in"
   height="0.7874158in"
   viewBox="0 0 56.689808 56.694248"
   xml:space="preserve"
   class="st9"
   version="1.1"
   id="svg85"
   sodipodi:docname="VM Image Version.svg"
   style="font-size:12px;overflow:visible;color-interpolation-filters:sRGB;fill:none;fill-rule:evenodd;stroke-linecap:square;stroke-miterlimit:3"
   inkscape:version="0.92.5 (2060ec1f9f, 2020-04-08)"><metadata
   id="metadata89"><rdf:RDF><cc:Work
       rdf:about=""><dc:format>image/svg+xml</dc:format><dc:type
         rdf:resource="http://purl.org/dc/dcmitype/StillImage" /></cc:Work></rdf:RDF></metadata><sodipodi:namedview
   pagecolor="#ffffff"
   bordercolor="#666666"
   borderopacity="1"
   objecttolerance="10"
   gridtolerance="10"
   guidetolerance="10"
   inkscape:pageopacity="0"
   inkscape:pageshadow="2"
   inkscape:window-width="640"
   inkscape:window-height="480"
   id="namedview87"
   showgrid="false"
   inkscape:zoom="1.4193119"
   inkscape:cx="37.79514"
   inkscape:cy="37.786194"
   inkscape:window-x="0"
   inkscape:window-y="0"
   inkscape:window-maximized="0"
   inkscape:current-layer="svg85" />
	<style
   type="text/css"
   id="style2">
	<![CDATA[
		.st1 {fill:url(#grad0-6);stroke:none;stroke-linecap:butt;stroke-width:34}
		.st2 {fill:#ffffff;stroke:none;stroke-linecap:butt;stroke-width:34}
		.st3 {fill:url(#grad0-12);stroke:none;stroke-linecap:butt;stroke-width:34}
		.st4 {fill:url(#grad0-16);stroke:none;stroke-linecap:butt;stroke-width:34}
		.st5 {fill:url(#grad0-20);stroke:none;stroke-linecap:butt;stroke-width:34}
		.st6 {fill:#50e6ff;stroke:none;stroke-linecap:butt;stroke-width:34}
		.st7 {fill:#c3f1ff;stroke:none;stroke-linecap:butt;stroke-width:34}
		.st8 {fill:#9cebff;stroke:none;stroke-linecap:butt;stroke-width:34}
		.st9 {fill:none;fill-rule:evenodd;font-size:12px;overflow:visible;stroke-linecap:square;stroke-miterlimit:3}
	]]>
	</style>

	<defs
   id="Patterns_And_Gradients">
		<linearGradient
   id="grad0-6"
   x1="-4.0115227e-07"
   y1="97.56"
   x2="27.15"
   y2="97.56"
   gradientUnits="userSpaceOnUse">
			<stop
   offset="0.13"
   stop-color="#b796f9"
   stop-opacity="1"
   id="stop4" />
			<stop
   offset="1"
   stop-color="#773adc"
   stop-opacity="1"
   id="stop6" />
		</linearGradient>
		<linearGradient
   id="grad0-12"
   x1="-0.00010040485"
   y1="80.772577"
   x2="44.064949"
   y2="80.772577"
   gradientTransform="scale(1.0010234,0.99897766)"
   gradientUnits="userSpaceOnUse">
			<stop
   offset="0"
   stop-color="#999999"
   stop-opacity="1"
   id="stop9" />
			<stop
   offset="1"
   stop-color="#767676"
   stop-opacity="1"
   id="stop11" />
		</linearGradient>
		<linearGradient
   id="grad0-16"
   x1="0.003416135"
   y1="103.93648"
   x2="20.796763"
   y2="103.93648"
   gradientTransform="scale(1.000159,0.99984107)"
   gradientUnits="userSpaceOnUse">
			<stop
   offset="0"
   stop-color="#b3b3b3"
   stop-opacity="1"
   id="stop14" />
			<stop
   offset="1"
   stop-color="#999999"
   stop-opacity="1"
   id="stop16" />
		</linearGradient>
		<linearGradient
   id="grad0-20"
   x1="-1.0690679e-05"
   y1="60.237297"
   x2="40.195628"
   y2="60.237297"
   gradientTransform="scale(0.80531146,1.2417556)"
   gradientUnits="userSpaceOnUse">
			<stop
   offset="0"
   stop-color="#0078d4"
   stop-opacity="1"
   id="stop19" />
			<stop
   offset="1"
   stop-color="#005ba1"
   stop-opacity="1"
   id="stop21" />
		</linearGradient>
	</defs>
	<g
   id="g83"
   transform="translate(-34.000433,-34.00005)">
		<title
   id="title25">Page-1</title>
		<g
   id="group10804-1"
   transform="translate(34,-34.0157)">
			<title
   id="title27">VM Image Version.10804</title>
			<g
   id="group10805-2">
				<title
   id="title29">Sheet.10805</title>
				<g
   id="shape10806-3"
   transform="translate(29.5402)">
					<title
   id="title31">Sheet.10806</title>
					<path
   d="M 0,111.13 A 13.5767,13.5767 -180 0 0 13.58,124.71 13.5767,13.5767 -180 0 0 27.15,111.13 13.5767,13.5767 -180 0 0 13.58,97.56 13.5767,13.5767 -180 0 0 0,111.13 Z"
   class="st1"
   id="path33"
   inkscape:connector-curvature="0"
   style="fill:url(#grad0-6);stroke:none;stroke-width:34;stroke-linecap:butt" />
				</g>
				<g
   id="shape10807-7"
   transform="translate(36.1606,-5.64094)">
					<title
   id="title36">Sheet.10807</title>
					<path
   d="M 13.92,124.71 H 0 l 0.03,-0.08 2.84,-6.47 c 1.34,-3.06 2.68,-6.13 4.02,-9.19 a 0.179528,0.179528 0 0 1 0.198425,-0.12913 C 7.35,108.84 7.35,108.84 7.44,109.07 l 4.65,11.22 1.79,4.34 z m -2.74,-0.98 -4.63,-11.38 -5.01,11.39 z"
   class="st2"
   id="path38"
   inkscape:connector-curvature="0"
   style="fill:#ffffff;stroke:none;stroke-width:34;stroke-linecap:butt" />
				</g>
				<g
   id="shape10808-9"
   transform="translate(9.28504,-9.83622)">
					<title
   id="title41">Sheet.10808</title>
					<path
   d="m 44.11,102.77 a 22.2331,22.2331 0 0 1 -0.63,5.3 0.885039,0.885039 0 0 1 -1.34488,0.52598 A 14.9071,14.9071 -180 0 0 18.93,120.95 15.0488,15.0488 -180 0 0 19.4,124.71 22.085,22.085 0 0 1 1.09,109.63 22.0756,22.0756 0 0 1 0,102.77 a 21.915,21.915 0 0 1 0.31,-3.74 21.6126,21.6126 0 0 1 0.73,-3 22.0724,22.0724 0 0 1 21.01,-15.34 c 0.35,0 0.7,0 1.04,0.02 a 22.0819,22.0819 0 0 1 21.02,22.06 z"
   class="st3"
   id="path43"
   inkscape:connector-curvature="0"
   style="fill:url(#grad0-12);stroke:none;stroke-width:34;stroke-linecap:butt" />
				</g>
				<g
   id="shape10809-13"
   transform="translate(20.9355,-21.3953)">
					<title
   id="title46">Sheet.10809</title>
					<path
   d="m 20.8,114.33 a 10.211,10.211 0 0 1 -0.58,3.43 14.9512,14.9512 -180 0 0 -10.73,6.95 10.3937,10.3937 0 0 1 -7.41,-4.12 10.2299,10.2299 0 0 1 -1.63,-3.23 10.4346,10.4346 0 0 1 0,-6.04 10.3937,10.3937 0 0 1 9.95,-7.4 10.2331,10.2331 0 0 1 1.04,0.05 10.3937,10.3937 0 0 1 9.36,10.36 z"
   class="st4"
   id="path48"
   inkscape:connector-curvature="0"
   style="fill:url(#grad0-16);stroke:none;stroke-width:34;stroke-linecap:butt" />
				</g>
				<g
   id="shape10810-17"
   transform="translate(0,-6.78425)">
					<title
   id="title51">Sheet.10810</title>
					<path
   d="m 32.37,76.37 v 31.22 a 14.9071,14.9071 -180 0 0 -4.17,10.31 15.0488,15.0488 -180 0 0 0.48,3.76 15.3197,15.3197 -180 0 0 0.63,1.85 0.88189,0.88189 0 0 1 -0.825197,1.20315 L 1.57,124.71 A 1.5748,1.5748 0 0 1 0,123.13 V 76.37 A 1.5748,1.5748 0 0 1 1.57,74.8 h 29.24 a 1.5748,1.5748 0 0 1 1.56,1.57 z"
   class="st5"
   id="path53"
   inkscape:connector-curvature="0"
   style="fill:url(#grad0-20);stroke:none;stroke-width:34;stroke-linecap:butt" />
				</g>
				<g
   id="shape10811-21"
   transform="translate(16.1984,-21.5118)">
					<title
   id="title56">Sheet.10811</title>
					<path
   d="m 8.71,109.33 0.06,10.2 -8.71,5.18 L 0,114.48 Z"
   class="st6"
   id="path58"
   inkscape:connector-curvature="0"
   style="fill:#50e6ff;stroke:none;stroke-width:34;stroke-linecap:butt" />
				</g>
				<g
   id="shape10812-23"
   transform="translate(7.40157,-31.7165)">
					<title
   id="title61">Sheet.10812</title>
					<path
   d="M 17.51,119.53 8.8,124.71 0,119.64 8.73,114.46 Z"
   class="st7"
   id="path63"
   inkscape:connector-curvature="0"
   style="fill:#c3f1ff;stroke:none;stroke-width:34;stroke-linecap:butt" />
				</g>
				<g
   id="shape10813-25"
   transform="translate(7.40157,-21.5118)">
					<title
   id="title66">Sheet.10813</title>
					<path
   d="M 8.8,114.5 8.86,124.71 0.06,119.64 0,109.43 Z"
   class="st8"
   id="path68"
   inkscape:connector-curvature="0"
   style="fill:#9cebff;stroke:none;stroke-width:34;stroke-linecap:butt" />
				</g>
				<g
   id="shape10814-27"
   transform="translate(7.46457,-21.5118)">
					<title
   id="title71">Sheet.10814</title>
					<path
   d="m 0,119.64 8.73,-5.16 0.07,10.23 z"
   class="st7"
   id="path73"
   inkscape:connector-curvature="0"
   style="fill:#c3f1ff;stroke:none;stroke-width:34;stroke-linecap:butt" />
				</g>
				<g
   id="shape10815-29"
   transform="translate(16.1984,-21.5118)">
					<title
   id="title76">Sheet.10815</title>
					<path
   d="M 8.77,119.53 0,114.48 0.06,124.71 Z"
   class="st8"
   id="path78"
   inkscape:connector-curvature="0"
   style="fill:#9cebff;stroke:none;stroke-width:34;stroke-linecap:butt" />
				</g>
			</g>
		</g>
	</g>
</svg>

<?xml version="1.0" encoding="UTF-8" standalone="no"?>
<!DOCTYPE svg PUBLIC "-//W3C//DTD SVG 1.1//EN" "http://www.w3.org/Graphics/SVG/1.1/DTD/svg11.dtd">
<!-- Generated by Microsoft Visio, SVG Export VM Image Version.svg Page-1 -->
<svg xmlns="http://www.w3.org/2000/svg" xmlns:xlink="http://www.w3.org/1999/xlink" xmlns:ev="http://www.w3.org/2001/xml-events"
		width="1.73185in" height="1.73206in" viewBox="0 0 124.693 124.709" xml:space="preserve" color-interpolation-filters="sRGB"
		class="st9">
	<style type="text/css">
	<![CDATA[
		.st1 {fill:url(#grad0-6);stroke:none;stroke-linecap:butt;stroke-width:34}
		.st2 {fill:#ffffff;stroke:none;stroke-linecap:butt;stroke-width:34}
		.st3 {fill:url(#grad0-12);stroke:none;stroke-linecap:butt;stroke-width:34}
		.st4 {fill:url(#grad0-16);stroke:none;stroke-linecap:butt;stroke-width:34}
		.st5 {fill:url(#grad0-20);stroke:none;stroke-linecap:butt;stroke-width:34}
		.st6 {fill:#50e6ff;stroke:none;stroke-linecap:butt;stroke-width:34}
		.st7 {fill:#c3f1ff;stroke:none;stroke-linecap:butt;stroke-width:34}
		.st8 {fill:#9cebff;stroke:none;stroke-linecap:butt;stroke-width:34}
		.st9 {fill:none;fill-rule:evenodd;font-size:12px;overflow:visible;stroke-linecap:square;stroke-miterlimit:3}
	]]>
	</style>

	<defs id="Patterns_And_Gradients">
		<linearGradient id="grad0-6" x1="0" y1="0" x2="1" y2="0" gradientTransform="rotate(90 0.5 0.5)">
			<stop offset="0.13" stop-color="#b796f9" stop-opacity="1"/>
			<stop offset="1" stop-color="#773adc" stop-opacity="1"/>
		</linearGradient>
		<linearGradient id="grad0-12" x1="0" y1="0" x2="1" y2="0" gradientTransform="rotate(90 0.5 0.5)">
			<stop offset="0" stop-color="#999999" stop-opacity="1"/>
			<stop offset="1" stop-color="#767676" stop-opacity="1"/>
		</linearGradient>
		<linearGradient id="grad0-16" x1="0" y1="0" x2="1" y2="0" gradientTransform="rotate(90 0.5 0.5)">
			<stop offset="0" stop-color="#b3b3b3" stop-opacity="1"/>
			<stop offset="1" stop-color="#999999" stop-opacity="1"/>
		</linearGradient>
		<linearGradient id="grad0-20" x1="0" y1="0" x2="1" y2="0" gradientTransform="rotate(90 0.5 0.5)">
			<stop offset="0" stop-color="#0078d4" stop-opacity="1"/>
			<stop offset="1" stop-color="#005ba1" stop-opacity="1"/>
		</linearGradient>
	</defs>
	<g>
		<title>Page-1</title>
		<g id="group10566-1" transform="translate(34,-34.0157)">
			<title>VM Image Version.10566</title>
			<g id="group10567-2">
				<title>Sheet.10567</title>
				<g id="shape10568-3" transform="translate(29.5402,0)">
					<title>Sheet.10568</title>
					<path d="M-0 111.13 A13.5767 13.5767 -180 0 0 13.58 124.71 A13.5767 13.5767 -180 0 0 27.15 111.13 A13.5767 13.5767
								 -180 0 0 13.58 97.56 A13.5767 13.5767 -180 0 0 -0 111.13 Z" class="st1"/>
				</g>
				<g id="shape10569-7" transform="translate(36.1606,-5.64094)">
					<title>Sheet.10569</title>
					<path d="M13.92 124.71 L0 124.71 L0.03 124.63 L2.87 118.16 C4.21 115.1 5.55 112.03 6.89 108.97 a0.179528 0.179528
								 0 0 1 0.198425 -0.129134 C7.35 108.84 7.35 108.84 7.44 109.07 L12.09 120.29 L13.88 124.63 L13.92
								 124.71 ZM11.18 123.73 L6.55 112.35 L1.54 123.74 L11.18 123.73 Z" class="st2"/>
				</g>
				<g id="shape10570-9" transform="translate(9.28504,-9.83622)">
					<title>Sheet.10570</title>
					<path d="M44.11 102.77 A22.2331 22.2331 0 0 1 43.48 108.07 a0.885039 0.885039 0 0 1 -1.34488 0.525984 A14.9071
								 14.9071 -180 0 0 18.93 120.95 A15.0488 15.0488 -180 0 0 19.4 124.71 A22.085 22.085 0 0 1 1.09 109.63
								 A22.0756 22.0756 0 0 1 -0 102.77 A21.915 21.915 0 0 1 0.31 99.03 A21.6126 21.6126 0 0 1 1.04 96.03
								 A22.0724 22.0724 0 0 1 22.05 80.69 C22.4 80.69 22.75 80.69 23.09 80.71 A22.0819 22.0819 0 0 1 44.11
								 102.77 Z" class="st3"/>
				</g>
				<g id="shape10571-13" transform="translate(20.9355,-21.3953)">
					<title>Sheet.10571</title>
					<path d="M20.8 114.33 A10.211 10.211 0 0 1 20.22 117.76 A14.9512 14.9512 -180 0 0 9.49 124.71 A10.3937 10.3937
								 0 0 1 2.08 120.59 A10.2299 10.2299 0 0 1 0.45 117.36 A10.4346 10.4346 0 0 1 0.45 111.32 A10.3937
								 10.3937 0 0 1 10.4 103.92 A10.2331 10.2331 0 0 1 11.44 103.97 A10.3937 10.3937 0 0 1 20.8 114.33
								 Z" class="st4"/>
				</g>
				<g id="shape10572-17" transform="translate(0,-6.78425)">
					<title>Sheet.10572</title>
					<path d="M32.37 76.37 L32.37 107.59 A14.9071 14.9071 -180 0 0 28.2 117.9 A15.0488 15.0488 -180 0 0 28.68 121.66
								 A15.3197 15.3197 -180 0 0 29.31 123.51 a0.88189 0.88189 0 0 1 -0.825197 1.20315 L1.57 124.71 A1.5748
								 1.5748 0 0 1 -0 123.13 L0 76.37 A1.5748 1.5748 0 0 1 1.57 74.8 L30.81 74.8 A1.5748 1.5748 0 0 1
								 32.37 76.37 Z" class="st5"/>
				</g>
				<g id="shape10573-21" transform="translate(16.1984,-21.5118)">
					<title>Sheet.10573</title>
					<path d="M8.71 109.33 L8.77 119.53 L0.06 124.71 L0 114.48 L8.71 109.33 Z" class="st6"/>
				</g>
				<g id="shape10574-23" transform="translate(7.40157,-31.7165)">
					<title>Sheet.10574</title>
					<path d="M17.51 119.53 L8.8 124.71 L0 119.64 L8.73 114.46 L17.51 119.53 Z" class="st7"/>
				</g>
				<g id="shape10575-25" transform="translate(7.40157,-21.5118)">
					<title>Sheet.10575</title>
					<path d="M8.8 114.5 L8.86 124.71 L0.06 119.64 L0 109.43 L8.8 114.5 Z" class="st8"/>
				</g>
				<g id="shape10576-27" transform="translate(7.46457,-21.5118)">
					<title>Sheet.10576</title>
					<path d="M0 119.64 L8.73 114.48 L8.8 124.71 L0 119.64 Z" class="st7"/>
				</g>
				<g id="shape10577-29" transform="translate(16.1984,-21.5118)">
					<title>Sheet.10577</title>
					<path d="M8.77 119.53 L0 114.48 L0.06 124.71 L8.77 119.53 Z" class="st8"/>
				</g>
			</g>
		</g>
	</g>
</svg>
